!!!OTL: ACH SCHOENSTES KAROLINCHEN
!!!ARE: Europa, Mitteleuropa, Deutschland, Lahngegend, Nassau
!!!SCT: E0447C
!!!YEM: Copyright 1995, estate of Helmut Schaffrath.
**kern
*ICvox
*Ivox
*M6/8
*k[f#]
*G:
{8d
=1
4g
8b
4dd
8dd
=2
4.dd
4b}
{8b
=3
4a
8ee
4dd
8cc
=4
4.b
4.r}
=5
{4.g
4.ee
=6
[4.dd
4dd]}
{8dd
=7
8ee
8dd
8cc
8cc
8dd
8ee
=8
4dd
8b
4b}
{8dd
=9
8dd
8ee
8dd
4dd
8cc
=10
2b
8r}
==
!!!AGN: Liebes - Lied
!!!ONB: ESAC (Essen Associative Code) Database: ERK1
!!!AMT: compound duple
!!!AIN: vox
!!!EED: Helmut Schaffrath
!!!EEV: 1.0
*-
